X: 93
T: the Shaskeen Reel
R: reel
Z: 2012 John Chambers <jc@trillian.mit.edu>
B: "100 Essential Irish Session Tunes" 1995 Dave Mallinson, ed.
M: 4/4
L: 1/8
K: G
D |\
"G"DG~G2 "Am"ABcA | "Bm"dedB "Am"cAAc | "G"B2GB "D"A2FA | "A7"GBAG "D"FDDG |\
"G"DG~G2 "Am"ABcA | "Bm"dedB "Am"cAAe | "D"fefg fedc | "D7"BcAB "G"G3 :|
B |\
"G"dggf g2fg | "D"abag fddc | "G"B2GB "D"A2FA | "A7"BGAG "D"FDDB |\
"G"dggf g2fg | "D"abag fdde | "D"fefg fedc | "D7"BcAB "G"G3 |]
B |\
"G"dggf g2fg | "D"abag fddc | "G"B2GB "D"A2FA | "A7"BGAG "D"FDGA |\
"G"BG~G2 "Am"cA~A2 | "Bm"dedB "Am"cAAe | "D"fefg fedc | "D7"BcAB "G"G3 |]

%%sep 2 1 500
%%sep 1 1 500

